X: 05080
T: SERENITY HILL
C: Bob McQuillen 11 May 1980
B: Bob's Note Book 5 #80
%R: waltz
Z: 2021 John Chambers <jc:trillian.mit.edu>
M: 3/4
L: 1/4
K: G
[| BB>c | d2B/A/ | GG>A | B2D | AA>B | AGA  | Bd>e | edc |\
|  BB>c | d2B/A/ | GG>A | B3  | AAc  | B2A  | G3-  | G3  |]
[| ee>f | g3     | Bd>e | d3  | c>Bc | ABc  | ed>B | d3  |\
|  ee>f | g3     | BB>c | dBG | ABc  | B>GA | G3-  | G3  |]
%%begintext align
%% Such a
%% pretty name - we pass it every
%% year on our way to Indian Neck.
%%endtext
